X: 31004
T: Pachelbel's Frolics
R: reel
M: 4/4
K: Dmajor
|:ABc|d2dc defg|~a3b afed|~B3c d2cB|~A3B AFDF|
G3A B3c|d2de (3fga ba|gfed Bd (3cde|1 fddc d:|2 fddc a2||
|:ga|fada fada|eaca eacz|dfBf dfBd|AdFd AdFA|
G3A B3c|d2de (3fga ba|gfed Bd (3cde|1 fddc a2:|2 fddc d:|

